!! 00000] TT[WS
!!!OTL: Chuanbusi guimeiren siwanle
!!!ARE: Asia, China,ÿShanxi Hequ
!! Ethnic Group: Han
!! WI, 47
!!!SCT: J0050
!!!YEM: Copyright 1995, estate of Helmut Schaffrath.
**kern
*ICvox
*Ivox
*M2/4
*k[f#]
*G:
{8aa
8a
8dd
16ee
16ee
=1
16dd
16ee
4a
8r
=2
8aa
8a
8dd
16ee
16ee
=3
2aa}
=4
{8aa
8dd
8ee
8gg
=5
16dd
16ee
4a
8r
=6
8aa
4dd
8ee
=7
2dd}
==
!!!AGN: Shange, Shanqu. Aisu
!!!ONB: ESAC (Essen Associative Code) Database: CHINA
!!!AMT: simple duple
!!!AIN: vox
!!!EED: Helmut Schaffrath
!!!EEV: 1.0
*-
